assets/02_eyes/Eye 13.svg

<svg width="400" height="180" viewBox="0 0 400 180" fill="none" xmlns="http://www.w3.org/2000/svg">
<g clip-path="url(#clip0_70_901)">
<path d="M289 134C289 84.8532 249.163 45 200.01 45C150.858 45 111 84.8532 111 134H289Z" fill="white"/>
<path d="M200.01 133.979C224.584 133.979 244.505 114.061 244.505 89.4897C244.505 64.9187 224.584 45 200.01 45C175.437 45 155.516 64.9187 155.516 89.4897C155.516 114.061 175.437 133.979 200.01 133.979Z" fill="black"/>
<path d="M212.252 93.6934C222.2 93.6934 230.264 85.63 230.264 75.6833C230.264 65.7365 222.2 57.6731 212.252 57.6731C202.304 57.6731 194.24 65.7365 194.24 75.6833C194.24 85.63 202.304 93.6934 212.252 93.6934Z" fill="white"/>
<path d="M188.778 116.505C194.674 116.505 199.454 111.726 199.454 105.831C199.454 99.9355 194.674 95.1565 188.778 95.1565C182.883 95.1565 178.103 99.9355 178.103 105.831C178.103 111.726 182.883 116.505 188.778 116.505Z" fill="white"/>
</g>
<defs>
<clipPath id="clip0_70_901">
<rect width="178" height="89" fill="white" transform="translate(111 45)"/>
</clipPath>
</defs>
</svg>

<svg xmlns="http://www.w3.org/2000/svg" width="400" height="180" fill="none" viewBox="0 0 400 180"><g clip-path="url(#a)"><path fill="#fff" d="M289 134c0-49.147-39.837-89-88.99-89S111 84.853 111 134z"/><path fill="#000" d="M200.01 133.979c24.574 0 44.495-19.918 44.495-44.49C244.505 64.92 224.584 45 200.01 45s-44.494 19.919-44.494 44.49 19.921 44.489 44.494 44.489"/><path fill="#fff" d="M212.252 93.693c9.948 0 18.012-8.063 18.012-18.01 0-9.946-8.064-18.01-18.012-18.01s-18.012 8.064-18.012 18.01 8.064 18.01 18.012 18.01m-23.474 22.812c5.896 0 10.676-4.779 10.676-10.674s-4.78-10.675-10.676-10.675c-5.895 0-10.675 4.78-10.675 10.675s4.78 10.674 10.675 10.674"/></g><defs><clipPath id="a"><path fill="#fff" d="M111 45h178v89H111z"/></clipPath></defs></svg>
